Newaita-dark/actions/24/mail-signature-unknown.svg

<?xml version="1.0" encoding="UTF-8"?>
<svg xmlns="http://www.w3.org/2000/svg" xmlns:xlink="http://www.w3.org/1999/xlink" width="24pt" height="24pt" viewBox="0 0 24 24" version="1.1">
<g id="surface1">
<path style=" stroke:none;fill-rule:nonzero;fill:rgb(74.117649%,74.117649%,74.117649%);fill-opacity:1;" d="M 2.976562 3.164062 C 1.878906 3.164062 0.992188 4.050781 0.992188 5.148438 L 0.992188 19.535156 C 0.992188 20.636719 1.878906 21.523438 2.976562 21.523438 L 14.386719 21.523438 L 14.386719 20.03125 L 3.472656 20.03125 C 2.921875 20.03125 2.480469 19.589844 2.480469 19.039062 L 2.480469 5.800781 L 11.335938 13.726562 C 11.660156 14.015625 12.152344 14.015625 12.480469 13.726562 L 21.335938 5.800781 L 21.335938 13.085938 L 22.824219 13.085938 L 22.824219 5.148438 C 22.824219 4.050781 21.9375 3.164062 20.839844 3.164062 Z M 3.765625 4.652344 L 20.050781 4.652344 L 11.90625 11.9375 Z M 3.765625 4.652344 "/>
<path style=" stroke:none;fill-rule:nonzero;fill:rgb(100%,43.921569%,26.274511%);fill-opacity:1;" d="M 21.695312 14.503906 C 21.113281 13.921875 20.171875 13.921875 19.589844 14.503906 L 16.082031 18.011719 L 18.886719 20.820312 L 19.941406 19.765625 L 22.398438 17.3125 C 22.980469 16.730469 22.980469 15.789062 22.398438 15.207031 Z M 21.695312 14.503906 "/>
<path style=" stroke:none;fill-rule:evenodd;fill:rgb(100%,43.921569%,26.274511%);fill-opacity:1;" d="M 15.730469 18.363281 L 18.539062 21.171875 L 15.378906 21.523438 Z M 15.730469 18.363281 "/>
</g>
</svg>

<svg xmlns="http://www.w3.org/2000/svg" width="32" height="32" viewBox="0 0 24 24"><path d="M2.977 3.164A1.982 1.982 0 0 0 .992 5.148v14.387c0 1.102.887 1.988 1.985 1.988h11.41v-1.492H3.473a.989.989 0 0 1-.993-.992V5.801l8.856 7.926c.324.289.816.289 1.144 0L21.336 5.8v7.285h1.488V5.148a1.982 1.982 0 0 0-1.984-1.984zm.789 1.488H20.05l-8.145 7.285zm0 0" fill="#bdbdbd"/><path d="M21.695 14.504a1.488 1.488 0 0 0-2.105 0l-3.508 3.508 2.805 2.808 1.054-1.054 2.457-2.453a1.488 1.488 0 0 0 0-2.106zm0 0" fill="#ff7043"/><path d="M15.73 18.363l2.81 2.809-3.161.351zm0 0" fill-rule="evenodd" fill="#ff7043"/></svg>
